slike/tl_svg.svg

<?xml version="1.0" encoding="UTF-8" standalone="no"?>
<!-- Created with Inkscape (http://www.inkscape.org/) -->

<svg
   width="297mm"
   height="210mm"
   viewBox="0 0 297 210"
   version="1.1"
   id="svg1"
   xml:space="preserve"
   xmlns:inkscape="http://www.inkscape.org/namespaces/inkscape"
   xmlns:sodipodi="http://sodipodi.sourceforge.net/DTD/sodipodi-0.dtd"
   xmlns="http://www.w3.org/2000/svg"
   xmlns:svg="http://www.w3.org/2000/svg"><sodipodi:namedview
     id="namedview1"
     pagecolor="#ffffff"
     bordercolor="#000000"
     borderopacity="0.25"
     inkscape:showpageshadow="2"
     inkscape:pageopacity="0.0"
     inkscape:pagecheckerboard="0"
     inkscape:deskcolor="#d1d1d1"
     inkscape:document-units="mm"><inkscape:page
       x="0"
       y="0"
       width="297"
       height="210"
       id="page2"
       margin="0"
       bleed="0" /></sodipodi:namedview><defs
     id="defs1" /><g
     inkscape:label="Sloj 1"
     inkscape:groupmode="layer"
     id="layer1"><path
       style="fill:#d40000;stroke-width:0.264999;paint-order:fill markers stroke"
       d="m 122.36988,111.23295 1.13642,-0.50003 0.68185,-0.81822 v -1.22734 l -17.09178,0.13637 -0.36365,-0.86368 -0.90914,-0.50002 -1.59099,-0.18183 -2.72741,-0.13637 -1.40917,1.59099 -1.045504,1.54553 -0.590939,1.81828 -0.272741,1.50007 -0.04546,1.72736 0.363657,1.77282 0.681852,2.04556 1.181875,1.59099 0.77277,1.22734 1.13642,0.90913 1.81828,1.40917 1.81827,1.0455 1.50008,0.6364 1.59099,0.72731 1.54553,0.50003 2.13648,0.86368 2.0001,0.63639 1.09096,0.77277 0.81823,1.3637 0.18182,1.00006 -0.77276,1.09096 -0.77277,1.00005 -2.0001,0.86368 -2.86378,0.72731 -2.22739,0.0909 -2.81833,-0.0455 -2.40921,-0.0909 -2.86378,-0.50003 -5.909398,-1.86373 -3.318351,-1.31825 -3.409264,-1.45462 -3.136522,-1.27279 -3.045611,-0.72731 -3.045611,-0.27274 -2.863781,0.0909 -3.272896,0.45457 -2.636496,0.68185 -1.772819,0.68186 -4.77297,1.77281 -4.772972,1.77282 -4.363857,1.63645 -5.591194,2.04556 -4.772972,1.18187 -3.500178,0.77277 -3.045611,0.40911 -3.63655,0.0455 -3.72746,0.0909 -2.591043,-0.31819 -2.363756,-0.59094 -2.772869,-1.00005 -1.045508,-0.86369 -1.045508,-1.50007 -0.09091,-2.04556 0.72731,-1.72736 0.454569,-0.9546 1.545533,-1.50007 1.45462,-1.22734 2.3183,-1.22733 3.318352,-1.45462 2.72741,-1.00005 2.454672,-0.90914 4.18203,-1.04551 21.228357,-6.45487 1.227336,-0.45457 0.500025,-1.13642 0.04546,-2.54559 c 0,0 0.181827,-1.13642 0.363656,-1.13642 0.181827,0 3.727461,-0.0909 3.727461,-0.0909 l 0.818224,-0.38639 0.06819,-0.88641 -2.000102,0.25002 -26.069512,-0.61367 -1.113692,-1.11369 -0.09091,-1.15915 0.1591,-1.2728 c 0,0 -0.477298,-0.0227 -0.477298,-0.1591 0,-0.13637 0.159099,-0.8864 0.159099,-0.8864 l 0.477295,-0.0455 -0.04546,-0.86368 0.136371,-1.02278 -0.477297,-0.0909 c 0,0 -0.04546,-0.9546 0.09091,-0.84096 0.136372,0.11365 0.454568,-0.0455 0.454568,-0.0455 l 0.181829,-1.841007 h -0.295471 l -0.02273,-0.818224 0.318198,0.02273 0.227282,-1.954646 -0.454567,-0.181827 0.113641,-0.727311 0.45457,0.227285 0.295468,-2.272842 -0.522753,-0.06819 0.04546,-0.795496 0.772766,0.204557 0.02273,-1.090967 h -0.43184 v -1.977371 l 0.681853,-0.04546 0.340926,-3.45472 0.931865,0.113641 0.09092,0.500025 25.810263,0.348147 0.578569,0.835715 v 1.992858 l 1.414286,0.128572 0.321429,-3.92143 6.139285,-0.35357 2.892859,-0.257143 3.182141,-0.578573 4.660715,-0.674999 4.114287,-1.125001 2.796429,-0.835713 2.699998,-0.867857 1.960714,-0.707144 1.8,-0.610714 H 100.125 l 0.64286,0.482143 1.15714,1.028573 12.6,9.192855 0.19286,0.289287 6.91071,0.144643 -0.36964,-0.43393 1.59107,-2.555357 1.20536,-2.008928 1.17321,-2.346428 0.85179,-2.764287 0.17678,-0.514284 -0.36964,0.08036 -0.75536,-0.337499 0.17679,-1.205357 0.5625,-1.671429 0.35357,0.176784 0.70714,-0.06429 -0.0804,-2.796426 -0.59464,-2.185715 -0.80357,-2.024999 -0.77143,-1.767858 -0.86785,-1.703571 -1.20536,-1.478573 -2.00893,-1.414285 -2.33036,-1.189287 -2.34643,-0.482142 -2.94107,-0.498213 -3.9375,-0.06429 -2.90893,0.369642 -3.32678,0.594643 -2.37857,0.562501 -8.357147,3.310713 -3.278571,0.916072 -3.953571,0.642858 L 79.633928,68.689283 76.049999,67.805355 73.285714,66.760711 70.923213,65.426782 63.948214,62.276783 56.346428,58.982138 52.2,57.439281 l -4.467858,-1.124997 -4.05,-0.578573 -4.275,0.03214 -4.403572,0.417859 -3.953571,1.124998 -4.017856,1.767858 -2.764286,1.478571 -3.857143,3.439287 -3.591674,3.597929 -2.386486,4.068389 -1.977373,5.659379 -1.045508,4.704787 -1.5228051,7.000356 -0.9318657,6.977629 -0.6363962,5.863937 -0.8182234,8.45498 -0.022728,7.81858 0.5454824,5.77302 1.3864344,4.9548 2.0228306,4.02293 2.659227,3.70473 0.795495,0.3182 1.068236,1.04551 1.545533,0.95459 1.727361,1.1137 1.75009,0.86368 1.704632,0.52275 2.181929,2.72741 2.113744,0.72731 3.386537,0.56821 5.841207,0.0227 5.318453,-0.29547 7.045814,-1.72736 7.159455,-2.3183 5.93212,-2.18193 9.13683,-3.52291 4.341132,-1.29551 2.500128,-0.36366 3.841104,0.0455 2.886511,0.47729 3.227438,1.2728 8.932273,3.59109 3.272893,1.20461 4.522956,0.77276 4.88662,0.0682 3.25016,0.0227 3.22744,-1.02278 2.09101,-1.02278 1.61372,-1.65918 1.00005,-1.15915 0.0227,-1.43189 -0.34093,-1.75009 -0.59094,-1.43189 -1.09096,-2.20466 -1.25006,-1.6819 -6.13668,-2.3183 -2.97742,-1.27279 -3.13653,-1.79555 -1.65917,-1.70463 -1.15915,-1.93192 0.0455,-2.3183 0.4773,-1.86373 1.5228,-1.77282 1.97738,-1.29552 1.20461,-0.54548 z"
       id="path1" /><path
       id="path2"
       style="display:inline;fill:#0066ff;stroke-width:0.264999;paint-order:fill markers stroke"
       d="m 244.96076,93.053752 -1.5105,0.931726 -1.41439,1.221631 -1.15755,0.803568 -2.66754,0.09663 -0.0119,2.268595 9.58029,0.520382 -0.82579,-0.764294 -0.0641,-0.803569 -8.5819,-0.128674 0.0961,-0.578259 8.6465,0.224792 0.54622,-0.964282 1.31826,-0.514181 0.93173,0.128675 1.09295,0.867647 0.12868,1.25367 c 0,0 -0.28911,0.867751 -0.38551,0.996322 -0.049,0.06529 -0.33424,0.244013 -0.6072,0.406693 l 3.75688,0.204122 v -0.418062 l 0.51418,-1.060401 1.31827,-0.353466 0.41754,-0.0646 0.83561,0.482141 0.70745,0.868164 0.12868,0.996322 -0.41807,0.964286 -1.02836,0.67489 -0.83612,-0.0641 -0.96428,-0.32143 -0.54622,-0.64285 -0.16072,-0.803569 -4.21266,-0.178284 c -0.002,9.2e-4 -0.03,0.01757 -0.03,0.01757 l -1.15755,0.06408 -0.17881,-0.13901 -10.02471,-0.424263 -0.007,1.331696 22.13612,1.48157 0.0641,-0.16072 0.38551,-1.02836 0.54674,-0.450098 1.15703,-0.353466 0.38551,0.224792 1.22163,0.674892 0.35347,0.9002 -0.032,0.99633 -0.86765,0.80356 -1.02888,0.12868 -1.18907,-0.16072 -0.6749,-0.48214 -0.16071,-0.73949 c 0,0 -21.42104,-1.25582 -22.29942,-1.29656 l -0.0403,7.53236 2.34662,0.32143 3.72846,1.73581 3.18223,2.12131 2.08928,2.79673 1.38235,4.08192 35.80711,3.02153 4.88549,0.25683 2.05724,-14.39964 -46.86432,-14.624945 z m 8.29303,8.517828 -0.0646,2.95692 -1.70326,0.032 0.0961,-2.92488 z m 16.00678,0.12867 0.70745,0.22479 0.96428,0.96429 c 0,0 0.32143,0.73938 0.32143,0.93224 0,0.19285 -0.0966,0.83561 -0.0966,0.83561 l -1.22111,0.80357 -0.77153,0.16071 -1.15755,-0.25735 -0.73898,-0.32143 -0.12867,-1.0604 0.16071,-1.02887 0.51418,-0.77102 z m 7.00732,2.15336 c 0,0 0.86807,0.32163 1.06092,0.73949 0.19286,0.41785 0.44982,0.44999 0.54622,0.64285 0.0964,0.19286 0.12867,0.54612 0.12867,0.89969 0,0.35357 -0.16095,0.61092 -0.25735,0.73949 -0.0964,0.12857 -0.61069,0.28907 -1.12499,0.54622 -0.51427,0.25718 -0.48194,0.32149 -0.70694,0.28939 -0.22498,-0.0322 -0.80356,-0.0641 -0.80356,-0.0641 0,0 -0.51417,-0.25744 -0.6749,-0.38602 -0.16071,-0.12857 -0.4504,-0.675 -0.5147,-0.80357 -0.0644,-0.12857 -0.032,-0.86765 -0.032,-0.86765 l 0.12867,-0.96428 0.73949,-0.57878 z m -18.19269,1.63918 1.67122,0.032 0.032,2.76468 -1.63918,0.0641 z m 24.55716,0.19275 c 0,0 0.73917,0.0644 0.99632,0.12867 0.25715,0.0643 0.57835,0.35347 0.70694,0.51418 0.12856,0.16071 0.28962,0.48214 0.38602,0.96429 0.0964,0.48214 -0.0643,0.64315 -0.32143,1.02887 -0.25713,0.38571 -0.51448,0.51408 -0.73949,0.70694 -0.225,0.19286 -0.25692,0.22531 -0.54622,0.38602 -0.28927,0.1607 -0.80357,0.0641 -0.80357,0.0641 0,0 -0.25747,-0.16052 -0.70745,-0.38551 -0.45,-0.225 -0.28918,-0.19306 -0.51418,-0.41806 -0.22499,-0.225 -0.22509,-0.48214 -0.28939,-0.80357 -0.0643,-0.32143 -0.0321,-0.41795 0,-0.61081 0.0321,-0.19285 0.22525,-0.54643 0.25735,-0.80357 0.0322,-0.25714 0.57826,-0.41755 0.57826,-0.41755 z" /></g></svg>

<?xml version="1.0" encoding="UTF-8" standalone="no"?>
<!-- Created with Inkscape (http://www.inkscape.org/) -->

<svg
   width="297mm"
   height="210mm"
   viewBox="0 0 297 210"
   version="1.1"
   id="svg1"
   xml:space="preserve"
   sodipodi:docname="tl_svg.svg"
   inkscape:version="1.4.2 (f4327f4, 2025-05-13)"
   xmlns:inkscape="http://www.inkscape.org/namespaces/inkscape"
   xmlns:sodipodi="http://sodipodi.sourceforge.net/DTD/sodipodi-0.dtd"
   xmlns="http://www.w3.org/2000/svg"
   xmlns:svg="http://www.w3.org/2000/svg"><sodipodi:namedview
     id="namedview1"
     pagecolor="#ffffff"
     bordercolor="#000000"
     borderopacity="0.25"
     inkscape:showpageshadow="2"
     inkscape:pageopacity="0.0"
     inkscape:pagecheckerboard="0"
     inkscape:deskcolor="#d1d1d1"
     inkscape:document-units="mm"
     inkscape:zoom="0.80004958"
     inkscape:cx="429.34839"
     inkscape:cy="416.84916"
     inkscape:window-width="1600"
     inkscape:window-height="837"
     inkscape:window-x="-8"
     inkscape:window-y="-8"
     inkscape:window-maximized="1"
     inkscape:current-layer="svg1"><inkscape:page
       x="0"
       y="0"
       width="297"
       height="210"
       id="page2"
       margin="0"
       bleed="0" /></sodipodi:namedview><defs
     id="defs1" /><g
     inkscape:label="Sloj 1"
     inkscape:groupmode="layer"
     id="layer1"><path
       id="path1"
       style="display:inline;fill:#d40000;stroke-width:0.264999;paint-order:fill markers stroke"
       d="M 43.682088 55.735616 L 39.406897 55.767655 L 35.003548 56.185718 L 31.049784 57.310714 L 27.031942 59.078564 L 24.267769 60.557027 L 20.41064 63.996611 L 16.819128 67.594324 L 14.432711 71.662809 L 12.455054 77.321895 L 11.409639 82.027035 L 9.886735 89.027124 L 8.955009 96.004993 L 8.3183553 101.86872 L 7.5003174 110.32402 L 7.4775798 118.14214 L 8.0232829 123.91543 L 9.4097616 128.87017 L 11.432377 132.89318 L 14.091646 136.59786 L 14.886947 136.91619 L 15.955615 137.9616 L 17.500741 138.91607 L 19.228284 140.0297 L 20.978564 140.89373 L 22.682853 141.41617 L 24.865149 144.14366 L 26.978715 144.87126 L 30.365072 145.43918 L 36.206576 145.46192 L 41.524597 145.16633 L 48.570679 143.43931 L 55.729932 141.12059 L 61.662386 138.93881 L 70.799296 135.41602 L 75.140116 134.1205 L 77.640222 133.75669 L 81.481331 133.80217 L 84.367977 134.27966 L 87.59517 135.55245 L 96.527441 139.14344 L 99.800627 140.34802 L 104.32335 141.12059 L 109.20987 141.1888 L 112.46032 141.21154 L 115.68751 140.18886 L 117.77886 139.16618 L 119.3922 137.50685 L 120.39265 136.34775 L 120.41539 134.9158 L 120.07432 133.16603 L 119.48315 131.73408 L 118.39226 129.52956 L 117.1422 127.84749 L 111.00563 125.52929 L 108.02803 124.2565 L 104.89179 122.46074 L 103.23246 120.75594 L 102.07336 118.82427 L 102.11883 116.50607 L 102.59632 114.6421 L 104.11871 112.8696 L 106.09637 111.57407 L 107.30094 111.02837 L 122.36979 111.233 L 123.50616 110.73278 L 124.18829 109.91474 L 124.18829 108.68742 L 107.09631 108.82385 L 106.7325 107.95982 L 105.82351 107.46011 L 104.2324 107.27821 L 101.50543 107.14178 L 100.09622 108.7329 L 99.050285 110.27854 L 98.459623 112.09652 L 98.186772 113.59668 L 98.141296 115.32423 L 98.505098 117.09673 L 99.186711 119.1426 L 100.36855 120.7332 L 101.14163 121.96051 L 102.27799 122.87002 L 104.09597 124.27924 L 105.91447 125.32465 L 107.41463 125.96079 L 109.00575 126.68839 L 110.55087 127.1881 L 112.6877 128.05213 L 114.68757 128.68827 L 115.77846 129.46135 L 116.59702 130.82509 L 116.77892 131.82503 L 116.00584 132.91592 L 115.23328 133.91586 L 113.23288 134.77937 L 110.36949 135.50697 L 108.14172 135.59792 L 105.3238 135.55245 L 102.91413 135.4615 L 100.05074 134.96127 L 94.141024 133.09782 L 90.82288 131.77955 L 87.413786 130.32486 L 84.277026 129.05207 L 81.231217 128.32447 L 78.185925 128.05213 L 75.322017 128.14308 L 72.049349 128.59732 L 69.412817 129.27945 L 67.639799 129.96106 L 62.866964 131.73408 L 58.093612 133.50658 L 53.730054 135.14317 L 48.138664 137.18853 L 43.365828 138.37088 L 39.865784 139.14344 L 36.819975 139.55272 L 33.183504 139.5982 L 29.456083 139.68915 L 26.865027 139.37082 L 24.501347 138.77964 L 21.728389 137.7797 L 20.682975 136.91619 L 19.637561 135.41602 L 19.546611 133.37015 L 20.273698 131.64313 L 20.728451 130.68866 L 22.274093 129.1885 L 23.728267 127.96118 L 26.046989 126.73387 L 29.365133 125.27917 L 32.092615 124.27924 L 34.547245 123.36973 L 38.729419 122.32432 L 59.957581 115.86941 L 61.184896 115.41518 L 61.685124 114.2783 L 61.730599 111.73271 C 61.730599 111.73271 61.912055 110.59635 62.093884 110.59635 C 62.275711 110.59635 65.821305 110.5054 65.821305 110.5054 L 66.63986 110.11938 L 66.708073 109.23261 L 64.707678 109.48272 L 38.638468 108.86932 L 37.524841 107.7557 L 37.433891 106.59608 L 37.593054 105.32329 C 37.593054 105.32329 37.115564 105.30104 37.115564 105.16464 C 37.115564 105.02827 37.274727 104.27787 37.274727 104.27787 L 37.751701 104.2324 L 37.706226 103.36888 L 37.842651 102.34621 L 37.365678 102.25526 C 37.365678 102.25526 37.320258 101.30032 37.456628 101.41396 C 37.593 101.52761 37.910864 101.36849 37.910864 101.36849 L 38.092765 99.527775 L 37.797176 99.527775 L 37.774438 98.709737 L 38.092765 98.731958 L 38.320142 96.777555 L 37.865389 96.595654 L 37.979077 95.868567 L 38.43383 96.095943 L 38.729419 93.822697 L 38.206453 93.754484 L 38.251929 92.959184 L 39.024491 93.163822 L 39.047229 92.072933 L 38.615731 92.072933 L 38.615731 90.095276 L 39.297343 90.049801 L 39.638407 86.595231 L 40.570133 86.708919 L 40.661084 87.20863 L 66.471395 87.55693 L 67.050171 88.392537 L 67.050171 90.385697 L 68.464038 90.514372 L 68.785982 86.592647 L 74.925142 86.239181 L 77.817989 85.981832 L 81.000224 85.403573 L 85.660921 84.728678 L 89.774882 83.603682 L 92.571611 82.767558 L 95.271187 81.89991 L 97.232308 81.192977 L 99.032198 80.582161 L 100.12515 80.582161 L 100.76801 81.064303 L 101.92504 82.092664 L 114.52479 91.285384 L 114.71806 91.574772 L 121.62875 91.719466 L 121.25875 91.285384 L 122.84987 88.730501 L 124.05548 86.721322 L 125.22853 84.374695 L 126.08016 81.610522 L 126.25689 81.096342 L 125.88741 81.17644 L 125.1319 80.838993 L 125.30915 79.633899 L 125.87139 77.962166 L 126.22485 78.139417 L 126.9323 78.074821 L 126.85169 75.278609 L 126.25689 73.092696 L 125.45332 71.067497 L 124.68231 69.299646 L 123.81415 67.596391 L 122.60905 66.117928 L 120.59987 64.703544 L 118.26978 63.513953 L 115.92316 63.031812 L 112.98225 62.533651 L 109.04451 62.469572 L 106.13564 62.839058 L 102.80871 63.433854 L 100.43056 63.996094 L 92.072933 67.307003 L 88.79458 68.223226 L 84.840816 68.866081 L 79.633899 68.689347 L 76.050138 67.805164 L 73.285966 66.760783 L 70.923319 65.427014 L 63.948035 62.276819 L 56.346431 58.98193 L 52.199915 57.439388 L 47.73197 56.314392 L 43.682088 55.735616 z M 44.34303 63.197176 L 45.746045 63.197176 L 47.061727 63.693787 L 47.529399 64.161458 L 47.499943 64.71698 L 47.061727 65.272502 L 46.506205 65.622868 L 45.717106 65.535535 L 45.073735 65.535535 L 44.840157 65.740173 L 44.92749 66.178389 L 45.921745 66.704456 L 48.289042 67.52301 L 50.569523 68.224776 L 53.02467 69.013875 L 55.216785 69.569397 L 57.642993 70.007613 L 59.864563 70.183313 L 61.150789 70.183313 L 62.758443 70.212252 L 63.197176 70.475285 L 64.278764 71.118656 L 65.535535 71.937211 L 66.821761 72.784705 L 67.990682 73.427559 L 70.270646 74.450753 L 74.27557 75.971073 L 79.21532 77.75391 L 80.150663 78.279976 L 80.413696 79.010681 L 80.472607 79.712447 L 80.267969 80.443152 L 79.741386 81.086007 L 78.806042 81.583134 L 77.900155 81.787773 L 76.789111 81.817228 L 75.386096 81.787773 C 75.386096 81.787773 74.59713 81.46612 74.480208 81.43689 C 74.363286 81.407661 73.924687 81.232251 73.924687 81.232251 L 73.632198 80.881368 L 73.632198 80.413696 L 73.983081 79.946025 L 74.450753 79.536747 L 75.152519 79.39102 L 76.058407 79.419958 L 76.116801 79.010681 L 76.116801 78.718709 L 75.53234 78.309432 L 74.158781 77.900155 L 72.72631 77.432483 L 71.264901 77.111056 L 70.183313 76.818567 L 68.399959 76.467684 L 67.464616 76.263045 L 66.266239 76.087862 L 65.038407 76.058407 L 63.401815 76.029468 L 60.595268 76.116801 L 60.098657 75.590735 L 59.192253 74.801636 L 58.169059 74.18772 L 57.087988 73.427559 L 55.363029 72.375427 L 53.667525 71.440084 L 51.124528 70.475285 L 47.295304 68.955481 L 43.232503 67.318372 L 42.12146 66.821761 L 41.800033 66.236784 L 41.683244 65.710718 L 41.683244 65.096802 L 41.887882 64.512341 L 42.267704 63.781637 L 43.115198 63.372359 L 44.34303 63.197176 z " /><path
       id="path2"
       style="display:inline;fill:#0066ff;stroke-width:0.264999;paint-order:fill markers stroke"
       d="m 244.96076,93.053752 -1.5105,0.931726 -1.41439,1.221631 -1.15755,0.803568 -2.66754,0.09663 -0.0119,2.268595 9.58029,0.520382 -0.82579,-0.764294 -0.0641,-0.803569 -8.5819,-0.128674 0.0961,-0.578259 8.6465,0.224792 0.54622,-0.964282 1.31826,-0.514181 0.93173,0.128675 1.09295,0.867647 0.12868,1.25367 c 0,0 -0.28911,0.867751 -0.38551,0.996322 -0.049,0.06529 -0.33424,0.244013 -0.6072,0.406693 l 3.75688,0.204122 v -0.418062 l 0.51418,-1.060401 1.31827,-0.353466 0.41754,-0.0646 0.83561,0.482141 0.70745,0.868164 0.12868,0.996322 -0.41807,0.964286 -1.02836,0.67489 -0.83612,-0.0641 -0.96428,-0.32143 -0.54622,-0.64285 -0.16072,-0.803569 -4.21266,-0.178284 c -0.002,9.2e-4 -0.03,0.01757 -0.03,0.01757 l -1.15755,0.06408 -0.17881,-0.13901 -10.02471,-0.424263 -0.007,1.331696 22.13612,1.48157 0.0641,-0.16072 0.38551,-1.02836 0.54674,-0.450098 1.15703,-0.353466 0.38551,0.224792 1.22163,0.674892 0.35347,0.9002 -0.032,0.99633 -0.86765,0.80356 -1.02888,0.12868 -1.18907,-0.16072 -0.6749,-0.48214 -0.16071,-0.73949 c 0,0 -21.42104,-1.25582 -22.29942,-1.29656 l -0.0403,7.53236 2.34662,0.32143 3.72846,1.73581 3.18223,2.12131 2.08928,2.79673 1.38235,4.08192 35.80711,3.02153 4.88549,0.25683 2.05724,-14.39964 -46.86432,-14.624945 z m 8.29303,8.517828 -0.0646,2.95692 -1.70326,0.032 0.0961,-2.92488 z m 16.00678,0.12867 0.70745,0.22479 0.96428,0.96429 c 0,0 0.32143,0.73938 0.32143,0.93224 0,0.19285 -0.0966,0.83561 -0.0966,0.83561 l -1.22111,0.80357 -0.77153,0.16071 -1.15755,-0.25735 -0.73898,-0.32143 -0.12867,-1.0604 0.16071,-1.02887 0.51418,-0.77102 z m 7.00732,2.15336 c 0,0 0.86807,0.32163 1.06092,0.73949 0.19286,0.41785 0.44982,0.44999 0.54622,0.64285 0.0964,0.19286 0.12867,0.54612 0.12867,0.89969 0,0.35357 -0.16095,0.61092 -0.25735,0.73949 -0.0964,0.12857 -0.61069,0.28907 -1.12499,0.54622 -0.51427,0.25718 -0.48194,0.32149 -0.70694,0.28939 -0.22498,-0.0322 -0.80356,-0.0641 -0.80356,-0.0641 0,0 -0.51417,-0.25744 -0.6749,-0.38602 -0.16071,-0.12857 -0.4504,-0.675 -0.5147,-0.80357 -0.0644,-0.12857 -0.032,-0.86765 -0.032,-0.86765 l 0.12867,-0.96428 0.73949,-0.57878 z m -18.19269,1.63918 1.67122,0.032 0.032,2.76468 -1.63918,0.0641 z m 24.55716,0.19275 c 0,0 0.73917,0.0644 0.99632,0.12867 0.25715,0.0643 0.57835,0.35347 0.70694,0.51418 0.12856,0.16071 0.28962,0.48214 0.38602,0.96429 0.0964,0.48214 -0.0643,0.64315 -0.32143,1.02887 -0.25713,0.38571 -0.51448,0.51408 -0.73949,0.70694 -0.225,0.19286 -0.25692,0.22531 -0.54622,0.38602 -0.28927,0.1607 -0.80357,0.0641 -0.80357,0.0641 0,0 -0.25747,-0.16052 -0.70745,-0.38551 -0.45,-0.225 -0.28918,-0.19306 -0.51418,-0.41806 -0.22499,-0.225 -0.22509,-0.48214 -0.28939,-0.80357 -0.0643,-0.32143 -0.0321,-0.41795 0,-0.61081 0.0321,-0.19285 0.22525,-0.54643 0.25735,-0.80357 0.0322,-0.25714 0.57826,-0.41755 0.57826,-0.41755 z" /></g></svg>
